!!!!SEGMENT: pl-wumfc--r282--001-010_paderewski-ignacy-jan--exercises-1-exercise-10.krn
!!!cenid: 18xx:3169
!!!COM: Paderewski, Ignacy Jan
!!!COM-rismID: pe30029943
!!!CDT: 1860/11/18-1941/06/29
!!!CNT: Polish
!!!GTL: [Exercises 1]
!!!OTL: [Exercise] 10
!!!OMV: 010
!!!PDT:
!!!AGN:
!!!SMS-siglum: PL-Wumfc
!!!SMS-shelfmark: R282
!!!SMS-shelfwork: 001-010 G
!!!SMS-variant:
!!!SMS-altvar:
!!!NIFC-rismSourceID: 1001158933
!!!NIFC-islandoraID: pl-wumfc:419
!!!URL-pdf-islandora: https://repozytorium.nifc.pl/islandora/object/pl-wumfc%3A419/datastream/PDF/view
!!!URL-scan: https://polish.musicsources.pl/pl/lokalizacje/galeria/rekopisy/4702 @EN{Scan on Polish Music Sources Website} @PL{Skany w portalu Dziedzictwo Muzyki Polskiej w otwartym dostępie}
!!!ONB-nifc: UWAGA: pierwsza grupa ćwiczeń na skanach 0004-0007
!!!AIN: 1 piano
!!!key: G
**kern	**kern
*part1	*part1
*staff2	*staff1
*>[A,A,B]	*>[A,A,B]
*>A	*>A
*I"[Pianoforte]	*
*Ipiano	*
*ICklav	*
*clefF4	*clefG2
*k[f#]	*k[f#]
*G:	*G:
=1	=1
!LO:TX:a:i:t=C. f.	!LO:TX:t=P:global:problem=brak oznaczenia metrycznego
4G\	4b/
4A\	4a/
4B\	4g/
4d\	4f#/
=2	=2
4G\	4g/
4F#\	4a/
2E\	4b/
.	4cc/
=3	=3
1D;	1dd;
=4	=4
4E\	4cc\
4F#\	4dd\
4G\	4b/
4A\	4a/
!!LO:LB:g=original
=5	=5
4B\	4g/
4A\	4f#/
2G;\	2g;/
=6:|!	=6:|!
*>B	*>B
4B\	4g/
4B\	4dd\
4A\	4cc\
4B\	4b\
=7	=7
4c\	4a\
4B\	4b\
2A;\	2cc;\
=8	=8
4E\	4ff#\
4F#\	4dd\
4G\	4b/
4A\	4a/
=9	=9
4B\	4g/
4A\	4f#X/
2G;\	2g;/
==	==
*-	*-
!!!system-decoration: (s1,s2)
!!!ENC: Berenika Jozajtis
!!!END: 2021-11-11
!!!ENC: Andrzej Kubiczek
!!!END: 2021-11-16
